svg/document-check.svg

<svg width="24" height="24" viewBox="0 0 24 24" fill="none" xmlns="http://www.w3.org/2000/svg">
<path d="M4 4C4 2.89543 4.89543 2 6 2H14C14.2652 2 14.5196 2.10536 14.7071 2.29289L19.7071 7.29289C19.8946 7.48043 20 7.73478 20 8V20C20 21.1046 19.1046 22 18 22H6C4.89543 22 4 21.1046 4 20V4ZM17.5858 8L14 4.41421V8H17.5858ZM12 4L6 4V20H18V10H13C12.4477 10 12 9.55228 12 9V4ZM15.7071 12.2929C16.0976 12.6834 16.0976 13.3166 15.7071 13.7071L11.7071 17.7071C11.3166 18.0976 10.6834 18.0976 10.2929 17.7071L8.29289 15.7071C7.90237 15.3166 7.90237 14.6834 8.29289 14.2929C8.68342 13.9024 9.31658 13.9024 9.70711 14.2929L11 15.5858L14.2929 12.2929C14.6834 11.9024 15.3166 11.9024 15.7071 12.2929Z" fill="#0D0D0D"/>
</svg>

<svg width="24" height="24" fill="none" xmlns="http://www.w3.org/2000/svg"><path d="M4 4a2 2 0 012-2h8a1 1 0 01.707.293l5 5A1 1 0 0120 8v12a2 2 0 01-2 2H6a2 2 0 01-2-2V4zm13.586 4L14 4.414V8h3.586zM12 4H6v16h12V10h-5a1 1 0 01-1-1V4zm3.707 8.293a1 1 0 010 1.414l-4 4a1 1 0 01-1.414 0l-2-2a1 1 0 111.414-1.414L11 15.586l3.293-3.293a1 1 0 011.414 0z" fill="#0D0D0D"/></svg>
